svgs/sharp-light/bowl-chopsticks-noodles.svg

<svg xmlns="http://www.w3.org/2000/svg" viewBox="0 0 512 512"><!--! Font Awesome Pro 6.6.0 by @fontawesome - https://fontawesome.com License - https://fontawesome.com/license (Commercial License) Copyright 2024 Fonticons, Inc. --><path d="M192 93.1l0-32.6L192 32l0-16 32 0 0 16 0 22.1 0 32.6 0 59.4 0 32.1 0 45.8 255.9 0 32.1 0-1.9 32-1.7 29.2C503.5 368.1 454 438.2 384 472.9l0 7.1 0 32-32 0-192 0-32 0 0-32 0-7.1C58 438.2 8.5 368.1 3.6 285.2L1.9 256 0 224l32.1 0 95.9 0 0-39.4L17.1 192 14.9 160 128 152.5l0-46.6L19.1 127.7 12.9 96.3 128 73.3 128 48l0-16 32 0 0 16 0 18.9 0 32.6 0 50.8 0 32.1 0 41.6 32 0 0-43.7 0-32.1 0-55.1zM256 144L494.9 128l2.1 31.9L256 176l0-32.1zm0-96.3L492.9 .3l6.3 31.4L256 80.3l0-32.6zM160 472.9l0 7.1 192 0 0-7.1 0-19.9 17.8-8.8c60.1-29.7 102.5-89.9 106.6-160.9l1.6-27.3L33.9 256l1.6 27.3c4.2 71 46.6 131.2 106.6 160.9L160 453l0 19.9z"/></svg>

<svg xmlns="http://www.w3.org/2000/svg" viewBox="0 0 512 512"><!--! Font Awesome Pro 6.4.0 by @fontawesome - https://fontawesome.com License - https://fontawesome.com/license (Commercial License) Copyright 2023 Fonticons, Inc. --><path d="M192 93.1V60.5 32 16h32V32 54.1 86.7v59.4 32.1V224h32H479.9 512l-1.9 32-1.7 29.2C503.5 368.1 454 438.2 384 472.9V480v32H352 160 128V480v-7.1C58 438.2 8.5 368.1 3.6 285.2L1.9 256 0 224H32.1 128V184.6L17.1 192 14.9 160 128 152.5V105.9L19.1 127.7 12.9 96.3 128 73.3V48 32h32V48 66.9 99.5v50.8 32.1V224h32V180.3 148.2 93.1zM256 144L494.9 128l2.1 31.9L256 176V144zm0-96.3L492.9 .3l6.3 31.4L256 80.3V47.7zM160 472.9V480H352v-7.1V453l17.8-8.8c60.1-29.7 102.5-89.9 106.6-160.9l1.6-27.3H33.9l1.6 27.3c4.2 71 46.6 131.2 106.6 160.9L160 453v19.9z"/></svg>
